files/img/toncoin.svg

<?xml version="1.0" encoding="utf-8"?>
<svg version="1.1" id="Layer_1" xmlns="http://www.w3.org/2000/svg" xmlns:xlink="http://www.w3.org/1999/xlink" x="0px" y="0px" viewBox="0 0 56 56" style="enable-background:new 0 0 56 56;" xml:space="preserve">

	<circle fill="#0088CC" cx="28" cy="28" r="28" />

	<path d="M20.2,18.5h15.7c0.6,0,1.1,0.1,1.7,0.4c0.7,0.3,1.1,0.8,1.3,1.2c0,0,0,0.1,0.1,0.1c0.3,0.5,0.5,1.1,0.5,1.8
	c0,0.6-0.1,1.2-0.5,1.8c0,0,0,0,0,0l-9.9,17c-0.2,0.4-0.6,0.6-1.1,0.6c-0.4,0-0.8-0.2-1.1-0.6l-9.7-17c0,0,0,0,0,0
	c-0.2-0.4-0.6-0.9-0.6-1.7c-0.1-0.7,0.1-1.3,0.4-1.9c0.3-0.6,0.8-1.1,1.5-1.3C19.1,18.5,19.8,18.5,20.2,18.5z M26.8,20.9h-6.6
	c-0.4,0-0.6,0-0.7,0.1c-0.2,0.1-0.3,0.2-0.4,0.4C19,21.5,19,21.7,19,21.9c0,0.1,0.1,0.2,0.3,0.6c0,0,0,0,0,0l7.5,13V20.9z
	 M29.2,20.9v14.7l7.6-13.1c0.1-0.2,0.1-0.4,0.1-0.6c0-0.2,0-0.4-0.1-0.5c-0.1-0.1-0.1-0.2-0.2-0.2c0,0-0.1-0.1-0.1-0.1
	c-0.2-0.1-0.4-0.1-0.7-0.1H29.2z" fill="#FFFFFF" />
</svg>

<svg width="56" height="56" viewBox="0 0 56 56" fill="none" xmlns="http://www.w3.org/2000/svg">
	<path d="M28 56C43.464 56 56 43.464 56 28C56 12.536 43.464 0 28 0C12.536 0 0 12.536 0 28C0 43.464 12.536 56 28 56Z" fill="#0088CC" />
	<path d="M20.2 18.5H35.9C36.5 18.5 37 18.6 37.6 18.9C38.3 19.2 38.7 19.7 38.9 20.1C38.9 20.1 38.9 20.2 39 20.2C39.3 20.7 39.5 21.3 39.5 22C39.5 22.6 39.4 23.2 39 23.8L29.1 40.8C28.9 41.2 28.5 41.4 28 41.4C27.6 41.4 27.2 41.2 26.9 40.8L17.2 23.8C17 23.4 16.6 22.9 16.6 22.1C16.5 21.4 16.7 20.8 17 20.2C17.3 19.6 17.8 19.1 18.5 18.9C19.1 18.5 19.8 18.5 20.2 18.5ZM26.8 20.9H20.2C19.8 20.9 19.6 20.9 19.5 21C19.3 21.1 19.2 21.2 19.1 21.4C19 21.5 19 21.7 19 21.9C19 22 19.1 22.1 19.3 22.5L26.8 35.5V20.9ZM29.2 20.9V35.6L36.8 22.5C36.9 22.3 36.9 22.1 36.9 21.9C36.9 21.7 36.9 21.5 36.8 21.4C36.7 21.3 36.7 21.2 36.6 21.2L36.5 21.1C36.3 21 36.1 21 35.8 21H29.2V20.9Z" fill="white" />
</svg>
